!!!COM:	Martini, Johannes
!!!CDT:	~1440///-~1497//
!!!OTL:	Exaltabo te
!!!AGN:	Motet
!!!SCT:	Mar2046
!!!SCA:	Mar2046
!!!voices:	2
**kern	**kern
*staff2	*staff1
*Ivox	*Ivox
*I"Tenor	*I"Superius
*I'T	*I'S
*>[A,B,C,D,E,F,G,H,I,J,K,L,M,N,O,P,Q,R,S,T,U,V,W,X]	*>[A,B,C,D,E,F,G,H,I,J,K,L,M,N,O,P,Q,R,S,T,U,V,W,X]
*>A	*>A
*clefGv2	*clefG2
*k[]	*k[]
*M2/1	*M2/1
*met(C)	*met(C)
=1-	=1-
!!LO:TX:Z=8:t=Choir 1
!!section: Et benedicam
!!!OMD: Et benedicam
1c	1cc
1e	1cc
=2	=2
2e\	2cc\
2e\	2cc\
1e	1cc
=3	=3
2e\	2cc\
2e\	2cc\
2e\	2cc\
2e\	2cc\
=4	=4
1c	1cc
1e	1cc
=5	=5
2e\	2cc\
2e\	2cc\
1e	1cc
=6	=6
1d	1b
2c\	2a/
2d\	2b\
=7	=7
2e\	2cc\
1f	1dd
2e\	[2cc\
=8	=8
1d	2cc\]
.	2b\
1cl	1ccl
=9||	=9||
*>B	*>B
!!section: Per singulos dies
!!!OMD: Per singulos dies
!!LO:TX:Z=8:t=Choir 2
1c	1cc
2e\	2cc\
2e\	2cc\
=10	=10
2e\	2cc\
2e\	2cc\
1e	1cc
=11	=11
2d\	2b\
2c\	2a/
2B\	2g/
2c\	[2cc\
=12	=12
1d	2cc\]
.	2b\
1c	1cc
=13	=13
1r	1r
1e	1cc
=14	=14
2e\	2cc\
2e\	2cc\
1e	1cc
=15	=15
2d\	2b\
2c\	2a/
1d	1b
=16	=16
1e	1cc
2c\	2a/
2d\	2b\
=17	=17
2e\	2cc\
1f	1dd
2e\	[2cc\
=18	=18
1d	2cc\]
.	2b\
1cl	1ccl
=19||	=19||
*>C	*>C
!!LO:TX:Z=8:t=Choir 1
!!section: Magnus Dominus
!!!OMD: Magnus Dominus
2e\	2cc\
2e\	2cc\
2e\	2cc\
2e\	2cc\
=20	=20
1c	1cc
2e\	2cc\
2e\	2cc\
=21	=21
2e\	2cc\
2e\	2cc\
1e	1cc
=22	=22
1f	1dd
1c	1cc
=23	=23
1r	1r
1e	1cc
=24	=24
2e\	2cc\
2e\	2cc\
2e\	2cc\
2e\	2cc\
=25	=25
1e	1cc
2d\	2b\
2c\	2a/
=26	=26
2B\	2g/
2c\	1cc
1d	.
.	2b\
=27	=27
0cl	0ccl
=28||	=28||
*>D	*>D
!!LO:TX:Z=8:t=Choir 2
!!section: Generatio et generatio
!!!OMD: Generatio et generatio
2e\	2cc\
2e\	2cc\
2e\	2cc\
2e\	2cc\
=29	=29
1e	1cc
1e	1cc
=30	=30
2e\	2cc\
2e\	2cc\
2e\	2cc\
2e\	2cc\
=31	=31
1c	1cc
2e\	2cc\
2e\	2cc\
=32	=32
2d\	2b\
2c\	2a/
2B\	2g/
2c\	[2cc\
=33	=33
1d	2cc\]
.	2b\
1c	1cc
=34	=34
1r	1r
2e\	2cc\
2e\	2cc\
=35	=35
2e\	2cc\
2e\	2cc\
2e\	2cc\
2e\	2cc\
=36	=36
1c	1cc
1d	1b
=37	=37
2e\	2cc\
1f	1dd
2e\	[2cc\
=38	=38
1d	2cc\]
.	2b\
1cl	1ccl
=39||	=39||
*>E	*>E
!!section: Magnificentiam glorie
!!!OMD: Magnificentiam glorie
!!LO:TX:Z=8:t=Choir 1
1e	1cc
2e\	2cc\
2e\	2cc\
=40	=40
2e\	2cc\
2e\	2cc\
1c	1cc
=41	=41
2e\	2cc\
2e\	2cc\
1e	1cc
=42	=42
2e\	2cc\
2e\	2cc\
2e\	2cc\
2e\	2cc\
=43	=43
1e	1cc
2e\	2cc\
2e\	2cc\
=44	=44
1f	1dd
1c	1cc
=45	=45
1r	1r
1e	1cc
=46	=46
2e\	2cc\
2e\	2cc\
2e\	2cc\
2e\	2cc\
=47	=47
1e	1cc
2d\	2b\
2c\	2a/
=48	=48
2B\	2g/
2c\	1cc
1d	.
.	2b\
=49	=49
0cl	0ccl
=50||	=50||
*>F	*>F
!!section: Et virtutem
!!!OMD: Et virtutem
!!LO:TX:Z=8:t=Choir 2
1c	1cc
2e\	2cc\
2e\	2cc\
=51	=51
1e	1cc
2e\	2cc\
2e\	2cc\
=52	=52
2e\	2cc\
2e\	2cc\
1c	1cc
=53	=53
2d\	2b\
2c\	2a/
2B\	2g/
2c\	[2cc\
=54	=54
1d	2cc\]
.	2b\
1c	1cc
=55	=55
1r	1r
1e	1cc
=56	=56
2e\	2cc\
2e\	2cc\
2e\	2cc\
2e\	2cc\
=57	=57
1e	1cc
2e\	2cc\
[2f\	[2dd\
=58	=58
2f\]	2dd\]
2e\	1cc
1d	.
.	2b\
=59	=59
0cl	0ccl
=60||	=60||
*>G	*>G
!!section: Memoriam habundantie
!!!OMD: Memoriam habundantie
!!LO:TX:Z=8:t=Choir 1
1c	1cc
2e\	2cc\
2e\	2cc\
=61	=61
1e	1cc
2e\	2cc\
2e\	2cc\
=62	=62
2e\	2cc\
2e\	2cc\
1e	1cc
=63	=63
2e\	2cc\
2e\	2cc\
2e\	2cc\
2e\	2cc\
=64	=64
1c	1cc
2d\	2b\
2e\	2cc\
=65	=65
2f\	2dd\
2e\	1cc
1d	.
.	2b\
=66	=66
1c	1cc
1r	1r
=67	=67
1e	1cc
1e	1cc
=68	=68
2e\	2cc\
2e\	2cc\
2e\	2cc\
2e\	2cc\
=69	=69
1e	1cc
2d\	2b\
2c\	2a/
=70	=70
2B\	2g/
2c\	1cc
1d	.
.	2b\
=71	=71
0cl	0ccl
=72||	=72||
*>H	*>H
!!section: Miserator et misericors
!!!OMD: Miserator et misericors
!!LO:TX:Z=8:t=Choir 2
1c	1cc
2e\	2cc\
2e\	2cc\
=73	=73
1e	1cc
2e\	2cc\
2e\	2cc\
=74	=74
2d\	2b\
2c\	2a/
2B\	2g/
2c\	[2cc\
=75	=75
1d	2cc\]
.	2b\
1c	1cc
=76	=76
1r	1r
2e\	2cc\
2e\	2cc\
=77	=77
1c	1cc
2c\	2a/
2d\	2b\
=78	=78
2e\	2cc\
1f	1dd
2e\	[2cc\
=79	=79
1d	2cc\]
.	2b\
1cl	1ccl
=80||	=80||
*>I	*>I
!!section: Suavis Dominus
!!!OMD: Suavis Dominus
!!LO:TX:Z=8:t=Choir 1
2B\	2g/
2c\	2a/
2B\	2g/
2c\	[2cc\
=81	=81
1d	2cc\]
.	2b\
1c	1cc
=82	=82
2e\	2cc\
2d\	1dd
2f\	.
2e\	[2cc\
=83	=83
1d	2cc\]
.	2b\
1c	1cc
=84	=84
1r	1r
1e	1cc
=85	=85
1e	1cc
2e\	2cc\
2e\	2cc\
=86	=86
2e\	2cc\
2e\	2cc\
2e\	2cc\
2e\	2cc\
=87	=87
1e	1cc
2e\	2cc\
2e\	2cc\
=88	=88
2e\	2cc\
2e\	2cc\
1e	1cc
=89	=89
2c\	2a/
2d\	2b\
2e\	2cc\
[2f\	[2dd\
=90	=90
2f\]	2dd\]
2e\	1cc
1d	.
.	2b\
=91	=91
0cl	0ccl
=92||	=92||
*>J	*>J
!!section: Confiteantur tibi
!!!OMD: Confiteantur tibi
!!LO:TX:Z=8:t=Choir 2
2e\	2cc\
2e\	2cc\
2e\	2cc\
2e\	2cc\
=93	=93
1e	1cc
2e\	2cc\
2e\	2cc\
=94	=94
2e\	2cc\
2e\	2cc\
1c	1cc
=95	=95
2e\	2cc\
2d\	1dd
2f\	.
2e\	[2cc\
=96	=96
1d	2cc\]
.	2b\
1c	1cc
=97	=97
1r	1r
2e\	2cc\
2e\	2cc\
=98	=98
2e\	2cc\
2e\	2cc\
1e	1cc
=99	=99
2d\	2b\
2c\	2a/
2B\	2g/
2c\	[2cc\
=100	=100
1d	2cc\]
.	2b\
1cl	1ccl
=101||	=101||
*>K	*>K
!!LO:TX:Z=8:t=Choir 1
!!section: Gloriam regni
!!!OMD: Gloriam regni
1e	1cc
2e\	2cc\
2e\	2cc\
=102	=102
1e	1cc
1e	1cc
=103	=103
2c\	2cc\
1f	1dd
2e\	[2cc\
=104	=104
1d	2cc\]
.	2b\
1c	1cc
=105	=105
1r	1r
1e	1cc
=106	=106
1e	1cc
2e\	2cc\
2e\	2cc\
=107	=107
1e	1cc
2c\	2a/
2d\	2b\
=108	=108
2e\	2cc\
1f	1dd
2e\	[2cc\
=109	=109
1d	2cc\]
.	2b\
1cl	1ccl
=110||	=110||
*>L	*>L
!!section: Ut notam faciant
!!!OMD: Ut notam faciant
!!LO:TX:Z=8:t=Choir 2
1c	1cc
2e\	2cc\
2e\	2cc\
=111	=111
2e\	2cc\
2e\	2cc\
1c	1cc
=112	=112
2d\	2b\
2c\	2a/
2d\	2b\
2d\	2b\
=113	=113
2e\	2cc\
2e\	2cc\
2d\	2b\
2c\	2a/
=114	=114
2B\	2g/
2c\	1cc
1d	.
.	2b\
=115	=115
1c	1cc
1r	1r
=116	=116
1e	1cc
2e\	2cc\
2e\	2cc\
=117	=117
1e	1cc
1e	1cc
=118	=118
2e\	2cc\
2e\	2cc\
2e\	2cc\
2e\	2cc\
=119	=119
1c	1cc
2e\	2cc\
[2f\	[2dd\
=120	=120
2f\]	2dd\]
2e\	1cc
1d	.
.	2b\
=121	=121
0cl	0ccl
=122||	=122||
*>M	*>M
!!LO:TX:Z=8:t=Choir 1
!!section: Regnum tuum
!!!OMD: Regnum tuum
1e	1cc
2e\	2cc\
2e\	2cc\
=123	=123
1e	1cc
2e\	2cc\
2e\	2cc\
=124	=124
2e\	2cc\
2e\	2cc\
1e	1cc
=125	=125
2d\	2b\
2c\	2a/
2B\	2g/
2c\	[2cc\
=126	=126
1d	2cc\]
.	2b\
1c	1cc
=127	=127
1r	1r
1e	1cc
=128	=128
2e\	2cc\
2e\	2cc\
2e\	2cc\
2e\	2cc\
=129	=129
2e\	2cc\
2e\	2cc\
1e	1cc
=130	=130
2d\	2b\
2c\	1a
1B	.
.	2g/
=131	=131
1c	1a
1d	1b
=132	=132
2e\	2cc\
2e\	2cc\
2e\	2cc\
2e\	2cc\
=133	=133
1e	1cc
2c\	2a/
2d\	2b\
=134	=134
2e\	2cc\
1f	1dd
2e\	[2cc\
=135	=135
1d	2cc\]
.	2b\
1cl	1ccl
=136||	=136||
*>N	*>N
!!section: Fidelis Dominus
!!!OMD: Fidelis Dominus
!!LO:TX:Z=8:t=Choir 2
1c	1cc
2e\	2cc\
2e\	2cc\
=137	=137
2e\	2cc\
2e\	2cc\
1c	1cc
=138	=138
1e	1cc
2e\	2cc\
2e\	2cc\
=139	=139
1e	1cc
2e\	2cc\
[2f\	[2dd\
=140	=140
2f\]	2dd\]
2e\	1cc
1d	.
.	2b\
=141	=141
1c	1cc
1r	1r
=142	=142
2e\	2cc\
2e\	2cc\
2e\	2cc\
2e\	2cc\
=143	=143
2d\	2b\
2d\	2b\
2c\	2a/
2d\	2b\
=144	=144
2e\	2cc\
1f	1dd
2e\	[2cc\
=145	=145
1d	2cc\]
.	2b\
1cl	1ccl
=146||	=146||
*>O	*>O
!!LO:TX:Z=8:t=Choir 1
!!section: Allevat Dominus
!!!OMD: Allevat Dominus
1e	1cc
2e\	2cc\
2e\	2cc\
=147	=147
2e\	2cc\
2e\	2cc\
1c	1cc
=148	=148
2d\	2b\
2c\	2a/
2B\	2g/
2c\	[2cc\
=149	=149
1d	2cc\]
.	2b\
1c	1cc
=150	=150
1r	1r
1e	1cc
=151	=151
2e\	2cc\
2e\	2cc\
1e	1cc
=152	=152
2e\	2cc\
1f	1dd
2e\	[2cc\
=153	=153
1d	2cc\]
.	2b\
1cl	1ccl
=154||	=154||
*>P	*>P
!!section: Oculi omnium
!!!OMD: Oculi omnium
!!LO:TX:Z=8:t=Choir 2
1e	1cc
2e\	2cc\
2e\	2cc\
=155	=155
2e\	2cc\
2e\	2cc\
1c	1cc
=156	=156
2d\	2b\
2c\	2a/
2.B\	2.g/
4c\	4a/
=157	=157
2d\	2b\
2c\	1cc
1d	.
.	2b\
=158	=158
1c	1cc
1r	1r
=159	=159
2e\	2cc\
2e\	2cc\
2e\	2cc\
2e\	2cc\
=160	=160
1e	1cc
2e\	2cc\
2e\	2cc\
=161	=161
1c	1cc
1d	1b
=162	=162
2c\	2a/
2d\	2b\
2e\	2cc\
[2f\	[2dd\
=163	=163
2f\]	2dd\]
2e\	1cc
1d	.
.	2b\
=164	=164
0cl	0ccl
=165||	=165||
*>Q	*>Q
!!LO:TX:Z=8:t=Choir 1
!!section: Aperis tu
!!!OMD: Aperis tu
1e	1cc
2e\	2cc\
2e\	2cc\
=166	=166
1e	1cc
2e\	2cc\
2d\	[2dd\
=167	=167
2f\	2dd\]
2e\	1cc
1d	.
.	2b\
=168	=168
1c	1cc
1r	1r
=169	=169
1e	1cc
2e\	2cc\
2e\	2cc\
=170	=170
2e\	2cc\
2e\	2cc\
2e\	2cc\
2e\	2cc\
=171	=171
1e	1cc
2c\	2a/
2d\	2b\
=172	=172
2B\	2g/
2c\	1cc
1d	.
.	2b\
=173	=173
0cl	0ccl
=174||	=174||
*>R	*>R
!!section: Justus Dominus
!!!OMD: Justus Dominus
!!LO:TX:Z=8:t=Choir 2
2e\	2cc\
2e\	2cc\
2e\	2cc\
2e\	2cc\
=175	=175
1c	1cc
1e	1cc
=176	=176
2e\	2cc\
2d\	2b\
2e\	2cc\
[2f\	[2dd\
=177	=177
2f\]	2dd\]
2e\	1cc
1d	.
.	2b\
=178	=178
1c	1cc
1r	1r
=179	=179
2e\	2cc\
2e\	2cc\
2e\	2cc\
2e\	2cc\
=180	=180
2d\	2b\
2d\	2b\
2c\	2a/
2d\	2b\
=181	=181
2e\	2cc\
1f	1dd
2e\	[2cc\
=182	=182
1d	2cc\]
.	2b\
1cl	1ccl
=183||	=183||
*>S	*>S
!!LO:TX:Z=8:t=Choir 1
!!section: Prope est Dominus
!!!OMD: Prope est Dominus
1e	1cc
2e\	2cc\
2e\	2cc\
=184	=184
2e\	2cc\
2e\	2cc\
1c	1cc
=185	=185
2e\	2cc\
2e\	2cc\
1e	1cc
=186	=186
1d	1b
1c	1a
=187	=187
2.B\	2.g/
4c\	4a/
2d\	2b\
2c\	[2cc\
=188	=188
1d	2cc\]
.	2b\
1c	1cc
=189	=189
1r	1r
2e\	2cc\
2e\	2cc\
=190	=190
1e	1cc
2e\	2cc\
2e\	2cc\
=191	=191
2e\	2cc\
2e\	2cc\
1c	1cc
=192	=192
2c\	2a/
2d\	2b\
2e\	2cc\
[2f\	[2dd\
=193	=193
2f\]	2dd\]
2e\	1cc
1d	.
.	2b\
=194	=194
0cl	0ccl
=195||	=195||
*>T	*>T
!!LO:TX:Z=8:t=Choir 2
!!section: Voluntatem timentium
!!!OMD: Voluntatem timentium
1e	1cc
2e\	2cc\
2e\	2cc\
=196	=196
1e	1cc
2e\	2cc\
2e\	2cc\
=197	=197
2e\	2cc\
1e	1cc
[2f\	[2dd\
=198	=198
2f\]	2dd\]
2e\	1cc
1d	.
.	2b\
=199	=199
1c	1cc
1r	1r
=200	=200
1c	1cc
2e\	2cc\
2e\	2cc\
=201	=201
2e\	2cc\
2e\	2cc\
1e	1cc
=202	=202
2d\	2b\
2c\	2a/
1d	1b
=203	=203
1A	1a
1d	1b
=204	=204
2e\	2cc\
2e\	2cc\
1c	1cc
=205	=205
1d	1b
2c\	2a/
2d\	2b\
=206	=206
2e\	2cc\
1f	1dd
2e\	[2cc\
=207	=207
1d	2cc\]
.	2b\
1cl	1ccl
=208||	=208||
*>U	*>U
!!section: Custodit Dominus
!!!OMD: Custodit Dominus
!!LO:TX:Z=8:t=Choir 1
1e	1cc
2e\	2cc\
2e\	2cc\
=209	=209
2e\	2cc\
2e\	2cc\
1c	1cc
=210	=210
1e	1cc
1d	1b
=211	=211
1c	1a
2.c\	2.a/
4d\	4b\
=212	=212
2e\	2cc\
2d\	1dd
1e	.
.	2cc#i\
=213	=213
1d	1dd
1r	1r
=214	=214
1e	1cc
1e	1cc
=215	=215
1e	1cc
2c\	2a/
2d\	2b\
=216	=216
2e\	2cc\
1f	1dd
2e\	[2cc\
=217	=217
1d	2cc\]
.	2b\
1cl	1ccl
=218||	=218||
*>V	*>V
!!section: Laudationem Domini
!!!OMD: Laudationem Domini
!!LO:TX:Z=8:t=Choir 2
1c	1cc
2e\	2cc\
2e\	2cc\
=219	=219
2e\	2cc\
2e\	2cc\
2e\	2cc\
2e\	2cc\
=220	=220
1c	1cc
2d\	2b\
2c\	2a/
=221	=221
2B\	2g/
2c\	1cc
1d	.
.	2b\
=222	=222
1c	1cc
1r	1r
=223	=223
2e\	2cc\
2e\	2cc\
2e\	2cc\
2e\	2cc\
=224	=224
1e	1cc
2d\	2b\
2c\	[2a/
=225	=225
1B	2a/]
.	2g#i/
1A	1a
=226	=226
1e	1cc
2e\	2cc\
2e\	2cc\
=227	=227
2d\	2b\
2c\	2a/
1d	1b
=228	=228
1c	1cc
1e	2r
.	2cc\
=229	=229
2e\	2cc\
2e\	2cc\
1e	1cc
=230	=230
1d	1b
2c\	2a/
2d\	2b\
=231	=231
2e\	2cc\
1f	1dd
2e\	[2cc\
=232	=232
1d	2cc\]
.	2b\
1cl	1ccl
=233||	=233||
*>W	*>W
!!section: Gloria Patri
!!!OMD: Gloria Patri
!!LO:TX:Z=8:t=Choir 1
1e	1cc
2e\	2cc\
2e\	2cc\
=234	=234
1e	1cc
2d\	2b\
2c\	2a/
=235	=235
2B\	2g/
2c\	1cc
1d	.
.	2b\
=236	=236
1c	1cc
1r	1r
=237	=237
1e	1cc
2e\	2cc\
2e\	2cc\
=238	=238
1d	1b
2.c\	2.a/
4d\	4b\
=239	=239
2e\	2cc\
1f	1dd
2e\	[2cc\
=240	=240
1d	2cc\]
.	2b\
1cl	1ccl
=241||	=241||
*>X	*>X
!!section: Sicut erat
!!!OMD: Sicut erat
!!LO:TX:Z=8:t=Choir 2
2e\	2cc\
2e\	2cc\
2e\	2cc\
2e\	2cc\
=242	=242
2e\	2cc\
2e\	2cc\
2e\	2cc\
2e\	2cc\
=243	=243
1c	1cc
2d\	2b\
2c\	2a/
=244	=244
2B\	2g/
2c\	1cc
1d	.
.	2b\
=245	=245
1c	1cc
1r	1r
=246	=246
2e\	2cc\
2e\	2cc\
2e\	2cc\
2e\	2cc\
=247	=247
1c	1cc
2c\	2a/
2d\	2b\
=248	=248
2e\	2cc\
1f	1dd
2e\	[2cc\
=249	=249
1d	2cc\]
.	2b\
1cl	1ccl
==	==
*-	*-
!!!RDF**kern: l=long note in original notation
!!!RDF**kern: i=editorial accidental
!!!ENC:	Chris Gage 08-11-2014
!!!END:	2014/10/09/
!!!EED:	Jesse Rodin
!!!EEV:	2014/10/17/
!!!ONB:	Translated from MusicXML and edited on 2014/10/17/ by Craig Sapp
!!muse2ps: C^@{COM}^i2I150v85,150Q16
